X:1
T:Title
%%score { ( 1 3 ) | 2 }
L:1/8
Q:1/4=100
M:4/4
K:Ab
V:1 treble nm="Grand Piano"
V:3 treble 
V:2 bass 
V:1
 [CE]3 [CE] [DF][CE][A,C][CE] | [EA]2 B2 c2 [EA]2 | [DF]3 [FA] [=EG][GB][FA][DF] | [CE]6 z2 | %4
w: Chas.~H.~Gabriel * * * * *||||
 E3 F G_G=GA | B2 =A2 B2 d2 | c3 B ABc[A=d] | [Ge]6 z2 | e3 c dcBA | [Ec]4 [_GA]4 | %10
w: ||||||
 [Fd]3 [DF] [EG][GB][FA][DF] | [CE]6 z2 | [CA]3 [DG] [EA]Bcd | e2 f2 e2 [Fd]2 | c3 d cBAG | %15
w: |||||
[M:3/4] [CA]6 |[M:1/4] AB |[M:4/4] z d3- d2 z2 | z c3- c2 z2 | e3 c AA[=DB][Dc] | B6 z2 | %21
w: ||||||
 z c3- c2 z2 | .d2 DD DD[FA][FB] | z4 B2 B2 | [CA]6 z2 |] %25
w: ||||
V:2
 [A,,A,]3 [A,,A,] [A,,A,][A,,A,][A,,E,][A,,A,] | [C,A,]2 [E,G,E]2 [A,E]2 [C,A,]2 | %2
 [D,A,]3 [D,A,] [D,A,][D,A,][D,A,][D,A,] | [A,,A,]6 z2 | %4
 [E,G,]3 [E,A,E] [E,B,E][E,=A,E][E,B,E][E,CE] | [E,DE]2 [E,CE]2 [E,DE]2 [G,B,E]2 | %6
 [A,E]3 [E,G,D] [F,A,C][E,G,E][A,E][F,B,] | [E,B,]6 z2 | %8
 [A,CE]3 [A,E] [A,F][A,E][A,D][K:bass][A,C] | [A,,A,]4 [C,A,]4 | %10
 [D,A,]3 [D,A,] [D,A,][D,A,][D,A,][D,A,] | [A,,A,]6 z2 | %12
 [A,,E,]3 [B,,E,] [C,A,][E,G,E][A,E][K:treble][A,B,E] | [A,CA]2 [A,DA]2 [A,CA]2[K:bass] [D,A,]2 | %14
 [E,A,E]3 [E,B,E] [E,A,E][E,DE][E,CE][E,B,D] |[M:3/4] [A,,A,]6 |[M:1/4] z2 | %17
[M:4/4] z2 [E,B,][E,B,] [E,B,][E,B,] z2 | z2 [A,,A,][A,,A,] [A,,A,][A,,A,][A,E][A,B,E] | %19
 [A,CE]3 [A,E] [F,CF][F,A,C][B,,A,][B,,A,] | [E,G,E]2 [F,A,]2 [G,B,][E,G,] z2 | %21
 z2 [A,,A,][A,,A,] [A,,A,][A,,A,] z2 | z2 [D,A,][D,A,] [D,A,][D,A,][D,A,][D,A,] | %23
 [E,A,E]3 [E,A,E] .[E,A,D]2 .[E,F,D]2 | [A,,A,]6 z2 |] %25
V:3
 x8 | x8 | x8 | x8 | x8 | x8 | x8 | x8 | x8 | x8 | x8 | x8 | x8 | x8 | x8 |[M:3/4] x6 |[M:1/4] x2 | %17
[M:4/4] .G2 GG GGFG | .E2 EE EEcd | x8 | z2 =D2 EEcd | .e2 EE EEBc | z F3- F2 z2 | c3 c z G, z G, | %24
 x8 |] %25

